X:1
T:Title
%%score { 1 | 2 }
L:1/8
Q:1/4=110
M:3/4
K:D
V:1 treble nm="Grand Piano"
V:2 bass 
V:1
 F2 D2 F2 | [FA]2 [DF]2 [FA]2 | [Fd]2 [Gc]2 [Ad]2 | [DFA]6 | [DGB]2 [B,DG]2 [DGB]2 | %5
w: William~Kirkpatrick * *|||||
 [DFA]2 [A,DF]2 [A,FA]2 | [A,EA]2 [A,EG]2 [A,DF]2 | [A,CE]6 | [A,DF]2 [F,A,D]2 [A,DF]2 | %9
w: ||||
 [DFA]2 [A,DF]2 [DFA]2 | [Fd]2 [Gc]2 [Ad]2 | B6 | e3 d B2 | A2 d2 z2 | F2 G2 [CE]2 | D6 | A3 A A2 | %17
w: ||||||||
 [DFA]4 z2 | [EGc]3 [EGB] [EGc]2 | [Fd]4 z2 | [Fd]3 [Ac] [GB]2 | [FA]3 [Fd] [Fd]2 | e2 d2 [Ec]2 | %23
w: ||||||
 [Fd]6 |] %24
w: |
V:2
 [D,A,D]2 [D,F,A,]2 [D,A,D]2 | [D,D]2 [D,A,]2 [D,D]2 | [D,A,]2 [E,A,]2 [F,A,]2 | D,6 | %4
 G,2 G,2 G,2 | D,2 D,2 D,2 | C,2 C,2 D,2 | A,,6 | D,2 D,2 D,2 | D,2 D,2 D,2 | %10
 [D,A,]2 [D,A,]2 [F,D]2 | [G,DG]6 | [G,B,G]3 [G,B,G] [G,DG]2 | [A,DF]2 [A,F]2 z2 | %14
 [A,D]2 [A,E]2 [A,,G,]2 | [D,F,]6 | [A,CE]3[K:treble] [A,DF] [A,EG]2 | D,4 z2 | A,,3 A,, A,,2 | %19
 [D,A,D]4 z2 | [D,A,]3 [D,A,] [D,D]2 | [D,D]3 [D,A,] [D,A,]2 | [G,B,G]2 [A,F]2[K:bass] [A,,A,]2 | %23
 [D,A,]6 |] %24

